X:1
T:Flora, The Lily of the West
M:2/4
L:1/4
K:C
 z3/2 A,/2| A, A| G A| E/2 E3/2| D2-| D C| A,/2 B,3/2| C D| A,2-| A,3/2 G/2-|\
 G/2 G E/2| G c| c/2 c B/2-| B3/2 B/2| A G| E/2 G3/2| A2-| A3/2 A/2-|\
 A/2 A G/2| A3/2 c/2| c/2 c B/2-| B3/2 B/2| A G| E G| A2-| A A,3/4 A,/4|\
 A, A| G A| E2| D2-| D C| A,/2 B,3/2| C D| A,2-| A, z|
